assets/img/jetsmart/habilidadesTecnologicasAlejandrosvg.svg

<svg width="280" height="35" viewBox="0 0 280 35" fill="none" xmlns="http://www.w3.org/2000/svg">
<path d="M123.526 21.1232L125.657 26.4875L125.999 27.406H126.036L126.379 26.4875L128.522 21.1232H130.8V30.3086H128.914V25.6302L128.939 24.6381L128.902 24.6259L128.559 25.5567L126.673 30.3086H125.301L123.428 25.5689L123.085 24.6381L123.06 24.6504L123.072 25.6424V30.3086H121.248V21.1232H123.526ZM135.796 30.4433C134.514 30.4433 133.575 30.1126 132.979 29.4513C132.391 28.7818 132.097 27.7979 132.097 26.4997C132.097 25.3158 132.362 24.3973 132.893 23.7441C133.424 23.0827 134.248 22.7521 135.367 22.7521C136.314 22.7521 137.061 23.0338 137.608 23.5971C138.155 24.1605 138.429 25.03 138.429 26.2058C138.429 26.3446 138.425 26.4956 138.417 26.6589C138.408 26.8222 138.396 26.9692 138.38 27.0998H134.057C134.106 27.7204 134.285 28.1612 134.596 28.4225C134.914 28.6756 135.392 28.8022 136.028 28.8022C136.714 28.8022 137.376 28.6797 138.012 28.4348L138.221 29.9657C137.91 30.1045 137.547 30.2188 137.131 30.3086C136.714 30.3984 136.269 30.4433 135.796 30.4433ZM136.69 25.8384C136.673 25.2913 136.551 24.9035 136.322 24.6749C136.094 24.4463 135.779 24.332 135.379 24.332C134.922 24.332 134.591 24.4503 134.387 24.6871C134.183 24.9157 134.061 25.2995 134.02 25.8384H136.69ZM144.319 30.3086L144.135 29.6717L144.099 29.6595C143.878 29.9208 143.605 30.1208 143.278 30.2596C142.951 30.3902 142.564 30.4556 142.115 30.4556C141.151 30.4556 140.437 30.1412 139.971 29.5125C139.506 28.8838 139.273 27.9 139.273 26.5609C139.273 25.3362 139.506 24.3932 139.971 23.7318C140.437 23.0705 141.143 22.7398 142.09 22.7398C142.8 22.7398 143.405 22.9644 143.903 23.4134L143.927 23.3889L143.903 22.4091V20.7803L145.801 20.6823V30.3086H144.319ZM143.903 25.0056C143.788 24.8423 143.621 24.7075 143.4 24.6014C143.188 24.4953 142.939 24.4422 142.653 24.4422C142.392 24.4422 142.172 24.4789 141.992 24.5524C141.812 24.6259 141.665 24.7484 141.551 24.9198C141.437 25.0913 141.355 25.3199 141.306 25.6057C141.257 25.8833 141.233 26.2303 141.233 26.6467C141.233 27.0794 141.253 27.4427 141.294 27.7367C141.343 28.0224 141.421 28.2551 141.527 28.4348C141.641 28.6062 141.788 28.7287 141.968 28.8022C142.147 28.8757 142.372 28.9124 142.641 28.9124C142.992 28.9124 143.266 28.8471 143.462 28.7165C143.666 28.5858 143.813 28.4429 143.903 28.2878V25.0056ZM147.574 30.3086V22.9358L149.522 22.85V30.3086H147.574ZM149.632 21.2824C149.632 21.5518 149.546 21.756 149.375 21.8948C149.203 22.0254 148.93 22.0907 148.554 22.0907C148.187 22.0907 147.913 22.0336 147.734 21.9193C147.554 21.7968 147.464 21.5845 147.464 21.2824C147.464 20.7354 147.828 20.4618 148.554 20.4618C148.93 20.4618 149.203 20.5312 149.375 20.67C149.546 20.8088 149.632 21.013 149.632 21.2824ZM155.331 29.5983L155.294 29.586C155.066 29.8554 154.78 30.0636 154.437 30.2106C154.094 30.3576 153.71 30.4311 153.286 30.4311C152.584 30.4311 152.024 30.231 151.608 29.831C151.192 29.4227 150.983 28.8022 150.983 27.9694C150.983 27.6265 151.04 27.3121 151.155 27.0263C151.277 26.7406 151.449 26.4997 151.669 26.3038C151.898 26.0996 152.175 25.9404 152.502 25.8261C152.829 25.7118 153.204 25.6547 153.629 25.6547C153.906 25.6547 154.164 25.6751 154.4 25.7159C154.637 25.7485 154.853 25.7975 155.049 25.8629V25.4342C155.049 25.0586 154.943 24.7851 154.731 24.6136C154.519 24.434 154.155 24.3442 153.641 24.3442C153.233 24.3442 152.873 24.3769 152.563 24.4422C152.261 24.5075 151.939 24.6096 151.596 24.7484L151.436 23.2297C151.812 23.0664 152.208 22.9439 152.624 22.8623C153.049 22.7806 153.502 22.7398 153.984 22.7398C154.531 22.7398 154.992 22.8011 155.368 22.9235C155.743 23.0378 156.045 23.2175 156.274 23.4624C156.511 23.7073 156.678 24.0176 156.776 24.3932C156.882 24.7688 156.935 25.2097 156.935 25.7159V30.3086H155.478L155.331 29.5983ZM155.049 27.1243C154.96 27.0835 154.825 27.0468 154.645 27.0141C154.466 26.9814 154.249 26.9651 153.996 26.9651C153.171 26.9651 152.759 27.2917 152.759 27.9449C152.759 28.3123 152.857 28.5695 153.053 28.7165C153.249 28.8553 153.502 28.9247 153.812 28.9247C153.976 28.9247 154.131 28.9042 154.278 28.8634C154.425 28.8144 154.555 28.7491 154.67 28.6675C154.784 28.5858 154.874 28.496 154.939 28.398C155.013 28.2919 155.049 28.1776 155.049 28.0551V27.1243Z" fill="#0C6292"/>
<path d="M4 8.48633L276 8.48635" stroke="url(#paint0_linear_1044_2695)" stroke-width="7.6545" stroke-linecap="round"/>
<circle cx="140.326" cy="8.19765" r="7.6545" transform="rotate(0.42689 140.326 8.19765)" fill="#0C6292"/>
<defs>
<linearGradient id="paint0_linear_1044_2695" x1="42.7038" y1="7.63318" x2="580.915" y2="9.19056" gradientUnits="userSpaceOnUse">
<stop stop-color="#00B0CA"/>
<stop offset="0.7" stop-color="#00C5E2" stop-opacity="0"/>
</linearGradient>
</defs>
</svg>

<svg xmlns="http://www.w3.org/2000/svg" width="280" height="35" fill="none"><path fill="#0C6292" d="m123.526 21.123 2.131 5.365.342.918h.037l.343-.918 2.143-5.365h2.278v9.186h-1.886V25.63l.025-.992-.037-.012-.343.93-1.886 4.753h-1.372l-1.873-4.74-.343-.93-.025.011.012.992v4.667h-1.824v-9.186zm12.27 9.32q-1.923 0-2.817-.992-.882-1.005-.882-2.951 0-1.776.796-2.756.796-.992 2.474-.992 1.42 0 2.241.845.82.845.821 2.609 0 .209-.012.453t-.037.44h-4.323q.073.931.539 1.323.478.38 1.432.38 1.03 0 1.984-.367l.209 1.53a5.6 5.6 0 0 1-1.09.344q-.626.134-1.335.134m.894-4.605q-.025-.82-.368-1.163t-.943-.343q-.686 0-.992.355-.306.343-.367 1.151zm7.629 4.47-.184-.636-.036-.012a2.2 2.2 0 0 1-.821.6q-.49.195-1.163.196-1.445 0-2.144-.944-.698-.942-.698-2.951 0-1.837.698-2.83.699-.99 2.119-.991 1.066 0 1.813.673l.024-.024-.024-.98V20.78l1.898-.098v9.627zm-.416-5.302a1.27 1.27 0 0 0-.503-.405 1.65 1.65 0 0 0-.747-.159 1.8 1.8 0 0 0-.661.11.96.96 0 0 0-.441.368q-.171.257-.245.686a6 6 0 0 0-.073 1.04q0 .65.061 1.09.074.43.233.699a.96.96 0 0 0 .441.367q.269.11.673.11.527 0 .821-.195a1.3 1.3 0 0 0 .441-.43zm3.671 5.303v-7.373l1.948-.086v7.459zm2.058-9.027q0 .405-.257.613-.257.195-.821.196-.551 0-.82-.172-.27-.184-.27-.637 0-.82 1.09-.82.564 0 .821.208.257.209.257.612m5.699 8.316-.037-.012a2.3 2.3 0 0 1-.857.625q-.515.22-1.151.22-1.053 0-1.678-.6-.625-.612-.625-1.862 0-.514.172-.943.184-.428.514-.722.343-.306.833-.478a3.4 3.4 0 0 1 1.127-.171q.416 0 .771.06.355.05.649.148v-.429q0-.563-.318-.82-.318-.27-1.09-.27-.612 0-1.078.098a6 6 0 0 0-.967.306l-.16-1.518a5.8 5.8 0 0 1 1.188-.368 7 7 0 0 1 1.36-.122q.82 0 1.384.184.563.172.906.538.355.368.502.931.159.564.159 1.323v4.593h-1.457zm-.282-2.474a1.8 1.8 0 0 0-.404-.11 3.7 3.7 0 0 0-.649-.049q-1.237 0-1.237.98 0 .551.294.771.294.21.759.209.246 0 .466-.062a1.5 1.5 0 0 0 .392-.195q.171-.123.269-.27a.6.6 0 0 0 .11-.343z"/><path stroke="url(#a)" stroke-linecap="round" stroke-width="7.654" d="M4 8.486h272"/><circle cx="140.326" cy="8.198" r="7.654" fill="#0C6292" transform="rotate(.427 140.326 8.198)"/><defs><linearGradient id="a" x1="42.704" x2="580.915" y1="7.633" y2="9.191" gradientUnits="userSpaceOnUse"><stop stop-color="#00B0CA"/><stop offset=".7" stop-color="#00C5E2" stop-opacity="0"/></linearGradient></defs></svg>
